polaris-icons/icons/new-icons/ViewportWideMajor.svg

<svg width="20" height="20" viewBox="0 0 20 20" fill="none" xmlns="http://www.w3.org/2000/svg">
<path d="M4 5.75C4 4.23122 5.23122 3 6.75 3H13.25C14.7688 3 16 4.23122 16 5.75V6.625C16 7.03921 15.6642 7.375 15.25 7.375C14.8358 7.375 14.5 7.03921 14.5 6.625V5.75C14.5 5.05964 13.9404 4.5 13.25 4.5H6.75C6.05964 4.5 5.5 5.05964 5.5 5.75V6.625C5.5 7.03921 5.16421 7.375 4.75 7.375C4.33579 7.375 4 7.03921 4 6.625V5.75Z" fill="#4A4A4A"/>
<path d="M4.75 12.625C5.16421 12.625 5.5 12.9608 5.5 13.375V14.25C5.5 14.9404 6.05964 15.5 6.75 15.5H13.25C13.9404 15.5 14.5 14.9404 14.5 14.25V13.375C14.5 12.9608 14.8358 12.625 15.25 12.625C15.6642 12.625 16 12.9608 16 13.375V14.25C16 15.7688 14.7688 17 13.25 17H6.75C5.23122 17 4 15.7688 4 14.25V13.375C4 12.9608 4.33579 12.625 4.75 12.625Z" fill="#4A4A4A"/>
<path d="M9.7504 10C9.7504 10.4142 9.41461 10.75 9.0004 10.75H6.56066L7.28033 11.4697C7.57322 11.7626 7.57322 12.2374 7.28033 12.5303C6.98744 12.8232 6.51257 12.8232 6.21967 12.5303L4.21967 10.5303C4.079 10.3897 3.99999 10.1989 4 9.99996C4.00001 9.80104 4.07904 9.61026 4.21972 9.46962L6.22012 7.46962C6.51304 7.17675 6.98792 7.1768 7.28078 7.46972C7.57364 7.76265 7.5736 8.23752 7.28067 8.53038L6.56091 9.25H9.0004C9.41461 9.25 9.7504 9.58579 9.7504 10Z" fill="#4A4A4A"/>
<path d="M11 10.75C10.5858 10.75 10.25 10.4142 10.25 10C10.25 9.58579 10.5858 9.25 11 9.25H13.4395L12.7197 8.53038C12.4268 8.23752 12.4268 7.76265 12.7196 7.46972C13.0125 7.1768 13.4874 7.17675 13.7803 7.46962L15.7807 9.46962C15.9214 9.61026 16.0004 9.80104 16.0004 9.99996C16.0004 10.1989 15.9214 10.3897 15.7807 10.5303L13.7807 12.5303C13.4878 12.8232 13.013 12.8232 12.7201 12.5303C12.4272 12.2374 12.4272 11.7626 12.7201 11.4697L13.4397 10.75H11Z" fill="#4A4A4A"/>
</svg>

<svg viewBox="0 0 20 20" xmlns="http://www.w3.org/2000/svg"><path d="M4 5.75a2.75 2.75 0 0 1 2.75-2.75h6.5a2.75 2.75 0 0 1 2.75 2.75v.875a.75.75 0 0 1-1.5 0v-.875c0-.69-.56-1.25-1.25-1.25h-6.5c-.69 0-1.25.56-1.25 1.25v.875a.75.75 0 0 1-1.5 0v-.875Z" fill="#5C5F62"/><path d="M4.75 12.625a.75.75 0 0 1 .75.75v.875c0 .69.56 1.25 1.25 1.25h6.5c.69 0 1.25-.56 1.25-1.25v-.875a.75.75 0 0 1 1.5 0v.875a2.75 2.75 0 0 1-2.75 2.75h-6.5a2.75 2.75 0 0 1-2.75-2.75v-.875a.75.75 0 0 1 .75-.75Z" fill="#5C5F62"/><path d="M9.75 10a.75.75 0 0 1-.75.75h-2.44l.72.72a.75.75 0 1 1-1.06 1.06l-2-2a.75.75 0 0 1 0-1.06l2-2a.75.75 0 1 1 1.06 1.06l-.72.72h2.44a.75.75 0 0 1 .75.75Z" fill="#5C5F62"/><path d="M11 10.75a.75.75 0 0 1 0-1.5h2.44l-.72-.72a.75.75 0 0 1 1.06-1.06l2 2a.75.75 0 0 1 0 1.06l-2 2a.75.75 0 1 1-1.06-1.06l.72-.72h-2.44Z" fill="#5C5F62"/></svg>
